images/icons/advantage-icon-housing.svg

<svg width="76" height="73" viewBox="0 0 76 73" fill="none" xmlns="http://www.w3.org/2000/svg">
<path d="M30.1499 65.5H46.1499V41.7H30.1499V65.5ZM33.0499 44.6H43.1499V62.6H33.0499V44.6Z" fill="#83B3D3"/>
<path d="M73.2499 39.8L75.3499 37.7L65.4499 27.8V0.5H51.5499V14.1L37.9499 0.5L0.649902 37.7L2.7499 39.8L10.5499 32V69.6H6.5499V72.5H70.4499V69.6H65.3499V32L73.2499 39.8ZM62.4499 69.6H13.4499V29L37.9499 4.6L62.4499 29V69.6ZM62.4499 24.9L54.5499 17V3.4H62.4499V24.9Z" fill="#83B3D3"/>
<path d="M30.3499 27.6C30.3499 31.9 33.8499 35.3 38.0499 35.3C42.3499 35.3 45.8499 31.8 45.8499 27.6C45.8499 23.3 42.3499 19.9 38.0499 19.9C33.8499 19.9 30.3499 23.3 30.3499 27.6ZM38.1499 22.6C40.8499 22.6 43.1499 24.8 43.1499 27.5C43.1499 30.2 40.9499 32.4 38.1499 32.4C35.4499 32.4 33.1499 30.2 33.1499 27.5C33.1499 24.8 35.3499 22.6 38.1499 22.6Z" fill="#83B3D3"/>
<path d="M20.5499 41.7H17.5499V45.6H20.5499V41.7Z" fill="#83B3D3"/>
<path d="M26.4499 41.7H23.4499V45.6H26.4499V41.7Z" fill="#83B3D3"/>
<path d="M20.5499 47.7H17.5499V51.6H20.5499V47.7Z" fill="#83B3D3"/>
<path d="M26.4499 47.7H23.4499V51.6H26.4499V47.7Z" fill="#83B3D3"/>
<path d="M52.4499 41.7H49.4499V45.6H52.4499V41.7Z" fill="#83B3D3"/>
<path d="M58.3499 41.7H55.3499V45.6H58.3499V41.7Z" fill="#83B3D3"/>
<path d="M52.4499 47.7H49.4499V51.6H52.4499V47.7Z" fill="#83B3D3"/>
<path d="M58.3499 47.7H55.3499V51.6H58.3499V47.7Z" fill="#83B3D3"/>
</svg>

<svg width="76" height="73" fill="none" xmlns="http://www.w3.org/2000/svg"><path d="M30.15 65.5h16V41.7h-16v23.8Zm2.9-20.9h10.1v18h-10.1v-18Z" fill="#83B3D3"/><path d="m73.25 39.8 2.1-2.1-9.9-9.9V.5h-13.9v13.6L37.95.5.65 37.7l2.1 2.1 7.8-7.8v37.6h-4v2.9h63.9v-2.9h-5.1V32l7.9 7.8Zm-10.8 29.8h-49V29l24.5-24.4L62.45 29v40.6Zm0-44.7-7.9-7.9V3.4h7.9v21.5Z" fill="#83B3D3"/><path d="M30.35 27.6c0 4.3 3.5 7.7 7.7 7.7 4.3 0 7.8-3.5 7.8-7.7 0-4.3-3.5-7.7-7.8-7.7-4.2 0-7.7 3.4-7.7 7.7Zm7.8-5c2.7 0 5 2.2 5 4.9s-2.2 4.9-5 4.9c-2.7 0-5-2.2-5-4.9s2.2-4.9 5-4.9ZM20.55 41.7h-3v3.9h3v-3.9ZM26.45 41.7h-3v3.9h3v-3.9ZM20.55 47.7h-3v3.9h3v-3.9ZM26.45 47.7h-3v3.9h3v-3.9ZM52.45 41.7h-3v3.9h3v-3.9ZM58.35 41.7h-3v3.9h3v-3.9ZM52.45 47.7h-3v3.9h3v-3.9ZM58.35 47.7h-3v3.9h3v-3.9Z" fill="#83B3D3"/></svg>
